X:222
T:Shady Grove
Z:Jack Campin, http://www.campin.me.uk/
F:Jack Campin's Nine-Note Tunebook
% last edit 03-02-2013
S:Hootenany Song Book
M:2/4
L:1/16
Q:1/4=110
K:EMin
E2E2 E2EE|F2E2 D4|E2EE F2A2|B6 B2|
d3d  B2B2|A2FE D4|E2FF A2F2|E8  |]

